kora-light/actions/scalable/fcitx-anthy.svg

<svg xmlns="http://www.w3.org/2000/svg" width="16" height="16" version="1.1">
 <defs>
  <style id="current-color-scheme" type="text/css">
   .ColorScheme-Text { color:#444444; } .ColorScheme-Highlight { color:#4285f4; }
  </style>
 </defs>
 <path style="fill:currentColor" class="ColorScheme-Text" d="M 2,0 C 0.892,0 0,0.892 0,2 V 14 C 0,15.108 0.892,16 2,16 H 14 C 15.108,16 16,15.108 16,14 V 2 C 16,0.892 15.108,0 14,0 Z M 6.334,2 H 7.6113 C 7.5373,2.5556 7.4078,3.1248 7.2227,3.9766 9.7297,3.875 11.609,3.7399 13,3.5762 V 4.8555 C 11.832,4.9885 9.9046,4.9217 6.9453,5.0547 6.649,6.2398 6.2588,8.2716 5.7773,9.3457 L 5.8887,9.4004 C 7.259,8.4745 8.2245,8.0117 9.1875,8.0117 10.41,8.0117 11.355,8.3078 12.021,8.9004 12.688,9.493 13,10.252 13,11.178 13,12.252 12.596,12.667 11.744,13.223 10.929,13.741 9.7058,14 8.0762,14 7.054,14 6.1191,14.006 5,13.945 V 12.498 C 5.9443,12.689 6.8385,12.723 7.9648,12.723 9.15,12.723 10.04,12.574 10.633,12.277 11.262,11.944 11.576,11.844 11.576,11.178 11.576,10.585 11.372,10.122 10.965,9.7891 10.557,9.4187 9.9653,9.2344 9.1875,9.2344 7.669,9.2344 6.4447,9.8811 5.1113,11.178 L 4.1113,10.4 C 4.7039,9.4378 5.2216,6.9747 5.666,5.0117 H 3 V 3.9805 C 3.9591,3.9759 4.9321,3.9653 5.9453,3.9336 Z"/>
</svg>

<svg xmlns="http://www.w3.org/2000/svg" style="fill-rule:evenodd;clip-rule:evenodd;stroke-linejoin:round;stroke-miterlimit:2" width="100%" height="100%" version="1.1" viewBox="0 0 16 16" xml:space="preserve">
 <defs>
  <style id="current-color-scheme" type="text/css">
   .ColorScheme-Text { color:#444444; } .ColorScheme-Highlight { color:#4285f4; } .ColorScheme-NeutralText { color:#ff9800; } .ColorScheme-PositiveText { color:#4caf50; } .ColorScheme-NegativeText { color:#f44336; }
  </style>
 </defs>
 <path style="fill:currentColor;" class="ColorScheme-Text" d="M6.334,2l1.277,0c-0.074,0.556 -0.203,1.125 -0.388,1.977c2.507,-0.102 4.386,-0.237 5.777,-0.401l0,1.279c-1.168,0.133 -3.095,0.067 -6.055,0.2c-0.296,1.185 -0.686,3.217 -1.168,4.291l0.112,0.054c1.37,-0.925 2.336,-1.388 3.298,-1.388c1.223,-0 2.168,0.296 2.834,0.888c0.667,0.593 0.979,1.352 0.979,2.278c0,1.074 -0.404,1.489 -1.256,2.045c-0.815,0.518 -2.038,0.777 -3.668,0.777c-1.022,0 -1.957,0.006 -3.076,-0.055l0,-1.447c0.944,0.191 1.838,0.225 2.965,0.225c1.185,0 2.075,-0.149 2.668,-0.446c0.629,-0.333 0.943,-0.433 0.943,-1.099c0,-0.593 -0.204,-1.056 -0.611,-1.389c-0.408,-0.37 -1,-0.555 -1.777,-0.555c-1.519,0 -2.743,0.647 -4.077,1.944l-1,-0.778c0.593,-0.962 1.111,-3.425 1.555,-5.388l-2.666,-0l0,-1.032c0.959,-0.004 1.932,-0.015 2.945,-0.046l0.389,-1.934Z"/>
</svg>
